X:51
T:One Hundred Pipers
M:6/8
L:1/8
K:G
%%MIDI channel 1
%%MIDI program 72
%%MIDI transpose 8
%%MIDI grace 1/8
%%MIDI ratio 3 1
GA|B2D DDD|E2F G2e|d2B BAG|ABA AGA|B2D DDD|
E2F G2e|d2B ABA|G3-Gz::Bc|d2d dBd|e2f g2e|d2B BAG|
ABA ABc|d2d dBd|e2f g2e|d2B ABA|G3-Gz:|

